resources/svg/opera.svg

<svg xmlns="http://www.w3.org/2000/svg" viewBox="0 0 24 24" fill="currentColor"><path fill="currentColor" fill-rule="evenodd" d="M12.124775,0 C5.56831311,0 1,4.75571037 1,11.888501 C1,18.2355851 5.43849706,24 12.1251037,24 C18.8774638,24 23.3506693,18.2369941 23.3506693,11.888501 C23.3506223,4.69859883 18.621683,0 12.124775,0 L12.124775,0 Z M12.1251037,21.3207828 C11.5820274,21.3207828 11.1100117,21.2149198 10.6996164,21.0221213 C9.55884149,20.4469667 8.87181213,19.1728532 8.46982387,17.6127593 C8.03491194,15.803319 7.98578474,13.6079061 7.98578474,11.6864031 C7.98578474,8.2547319 8.23625832,5.15403523 9.63680626,3.60648141 C10.2479843,2.95679061 11.0537456,2.57222701 12.1121409,2.56936204 C12.1165088,2.56936204 12.1208767,2.5689863 12.1250098,2.5689863 C13.5037182,2.5689863 14.4704814,3.24413307 15.1409315,4.30276321 C16.1404305,5.99107632 16.3679843,8.72707632 16.3679843,11.6711389 C16.3680783,15.8502857 16.0902701,21.3207828 12.1251037,21.3207828 L12.1251037,21.3207828 Z"/></svg>

<svg viewBox="0 0 24 24"><path fill="currentColor" fill-rule="evenodd" d="M12.125 0C5.568 0 1 4.756 1 11.889C1 18.236 5.438 24 12.125 24c6.752 0 11.226-5.763 11.226-12.111C23.35 4.699 18.62 0 12.125 0zm0 21.32a3.308 3.308 0 0 1-1.425-.298c-1.141-.575-1.828-1.85-2.23-3.41c-.435-1.809-.484-4.004-.484-5.926c0-3.431.25-6.532 1.65-8.08c.612-.65 1.418-1.034 2.476-1.037h.013c1.379 0 2.345.675 3.016 1.734c1 1.688 1.227 4.424 1.227 7.368c0 4.18-.278 9.65-4.243 9.65z"/></svg>
